svg/color/uberon.svg

<svg width="40" height="40" viewBox="0 0 40 40" fill="none" xmlns="http://www.w3.org/2000/svg">
<g clip-path="url(#clip0_819_3649)">
<path d="M20 0C31.0457 0 40 8.9543 40 20C40 31.0457 31.0457 40 20 40C8.95431 40 7.90517e-06 31.0457 0 20C6.58765e-07 8.95431 8.95431 1.97595e-06 20 0Z" fill="#D9D9D9"/>
<path d="M26 6C30.4183 6 34 9.58172 34 14V26C34 30.4183 30.4183 34 26 34H14C9.58172 34 6 30.4183 6 26V14C6 9.58172 9.58172 6 14 6H26Z" fill="black"/>
<g clip-path="url(#clip1_819_3649)">
<path d="M10.0001 16.6417V20.7734C10.0001 22.3292 11.0851 23.3576 12.5001 23.3576C13.1884 23.3576 13.8017 23.0942 14.2451 22.6326V23.2459H15.2251V16.6417H14.2351V20.7151C14.2351 21.7626 13.5267 22.4701 12.6126 22.4701C11.6876 22.4701 10.9909 21.7809 10.9909 20.7151V16.6426H10.0001V16.6417ZM16.2001 16.6417V23.2459H17.1417V22.6417C17.5759 23.0851 18.1892 23.3584 18.8584 23.3584C19.1896 23.3615 19.5181 23.2988 19.825 23.1741C20.1318 23.0494 20.4109 22.8651 20.646 22.6318C20.8811 22.3985 21.0677 22.121 21.1948 21.8151C21.3219 21.5093 21.3872 21.1813 21.3867 20.8501C21.3883 20.5181 21.3239 20.1891 21.1973 19.8821C21.0708 19.5752 20.8846 19.2964 20.6494 19.062C20.4143 18.8276 20.135 18.6422 19.8277 18.5166C19.5204 18.3909 19.1912 18.3275 18.8592 18.3301C18.5411 18.3297 18.2262 18.3929 17.9329 18.5162C17.6397 18.6394 17.3741 18.8201 17.1517 19.0476V16.6426H16.1992L16.2001 16.6417ZM24.4242 18.3401C23.0184 18.3401 21.9534 19.4817 21.9534 20.8401C21.9534 22.2734 23.0651 23.3484 24.5084 23.3484C25.3859 23.3484 26.1026 22.9626 26.5834 22.3209L25.8951 21.8117C25.5367 22.2926 25.0651 22.5176 24.5084 22.5176C23.6976 22.5176 23.0476 21.9342 22.9151 21.1509H26.8292V20.8401C26.8292 19.4067 25.8109 18.3401 24.4242 18.3401ZM29.6701 18.3967C29.1417 18.3967 28.7551 18.6417 28.5192 19.0284V18.4342H27.5767V23.2459H28.5284V20.5084C28.5284 19.7634 28.9817 19.2834 29.6042 19.2834H30.0001V18.3959H29.6701V18.3967ZM24.4042 19.1701C25.1126 19.1701 25.7076 19.6601 25.8676 20.3951H22.9334C23.1026 19.6601 23.6967 19.1701 24.4042 19.1701ZM18.7942 19.1801C19.6992 19.1801 20.4442 19.9159 20.4442 20.8501C20.446 21.2898 20.2733 21.7123 19.964 22.0249C19.6547 22.3375 19.234 22.5147 18.7942 22.5176C18.5754 22.518 18.3587 22.4751 18.1566 22.3914C17.9544 22.3077 17.7709 22.1848 17.6165 22.0297C17.4621 21.8747 17.3399 21.6907 17.257 21.4882C17.1741 21.2857 17.1321 21.0688 17.1334 20.8501C17.1319 20.6312 17.1737 20.4141 17.2564 20.2115C17.3392 20.0088 17.4612 19.8245 17.6156 19.6693C17.7699 19.514 17.9534 19.3909 18.1556 19.3069C18.3577 19.2229 18.5745 19.1798 18.7934 19.1801H18.7942Z" fill="white"/>
</g>
</g>
<defs>
<clipPath id="clip0_819_3649">
<rect width="40" height="40" fill="white"/>
</clipPath>
<clipPath id="clip1_819_3649">
<rect width="20" height="20" fill="white" transform="translate(10 10)"/>
</clipPath>
</defs>
</svg>

<svg xmlns="http://www.w3.org/2000/svg" width="40" height="40" fill="none" viewBox="0 0 40 40"><g clip-path="url(#uberon_svg-a)"><path fill="#D9D9D9" d="M20 0c11.046 0 20 8.954 20 20s-8.954 20-20 20S0 31.046 0 20 8.954 0 20 0"/><path fill="#000" d="M26 6a8 8 0 0 1 8 8v12a8 8 0 0 1-8 8H14a8 8 0 0 1-8-8V14a8 8 0 0 1 8-8z"/><g clip-path="url(#uberon_svg-b)"><path fill="#fff" d="M10 16.642v4.131c0 1.556 1.085 2.585 2.5 2.585.688 0 1.302-.264 1.745-.725v.613h.98v-6.604h-.99v4.073c0 1.048-.708 1.755-1.622 1.755-.925 0-1.622-.69-1.622-1.755v-4.072zm6.2 0v6.604h.942v-.604a2.4 2.4 0 0 0 1.716.716 2.505 2.505 0 0 0 2.529-2.508 2.507 2.507 0 0 0-2.528-2.52 2.38 2.38 0 0 0-1.707.718v-2.405zm8.224 1.698c-1.406 0-2.47 1.142-2.47 2.5 0 1.433 1.111 2.508 2.554 2.508a2.52 2.52 0 0 0 2.075-1.027l-.688-.51c-.358.482-.83.707-1.387.707-.81 0-1.46-.584-1.593-1.367h3.914v-.31c0-1.434-1.018-2.5-2.405-2.5m5.246.057c-.528 0-.915.245-1.15.631v-.594h-.943v4.812h.951v-2.738c0-.745.454-1.225 1.076-1.225H30v-.887h-.33m-5.266.773c.709 0 1.304.49 1.464 1.225h-2.935c.17-.735.764-1.225 1.471-1.225m-5.61.01c.905 0 1.65.736 1.65 1.67a1.66 1.66 0 0 1-1.65 1.668 1.66 1.66 0 0 1-1.66-1.668 1.66 1.66 0 0 1 1.66-1.67"/></g></g><defs><clipPath id="uberon_svg-a"><path fill="#fff" d="M0 0h40v40H0z"/></clipPath><clipPath id="uberon_svg-b"><path fill="#fff" d="M10 10h20v20H10z"/></clipPath></defs></svg>
